packages/core/src/svgs/nxra.svg

<svg width="24" height="24" viewBox="0 0 24 24" fill="none" xmlns="http://www.w3.org/2000/svg">
<g clip-path="url(#clip0_31_15042)">
<path d="M0 0H24V24H0V0Z" fill="url(#paint0_linear_31_15042)"/>
<path d="M5.35735 8.03564C7.45322 6.7859 9.54893 5.5359 11.6445 4.28564C11.6488 4.28564 11.6445 4.2985 11.6316 4.31564L10.6802 5.95279L10.6716 5.96136L10.1659 6.83564C8.76449 9.23564 8.71307 9.32136 8.69592 9.31707C8.59137 9.30704 8.4859 9.31282 8.38307 9.33422C8.26307 9.36422 8.16449 9.41993 8.06164 9.50564L8.01878 9.54422L6.67735 8.79422C5.43449 8.09564 5.34021 8.04422 5.35735 8.03564ZM13.8345 6.82707L12.3645 4.30279C12.3474 4.28136 12.3602 4.28136 12.5059 4.37136L13.8216 5.15564L15.6645 6.25707L18.6602 8.0485C18.6602 8.05279 16.0031 9.53993 15.9902 9.53993C15.97 9.52798 15.9512 9.51359 15.9345 9.49707C15.8011 9.37838 15.6288 9.3128 15.4502 9.31279H15.3216L15.2874 9.31707L13.8345 6.82707ZM11.7859 4.89422L9.06878 9.48422L9.1245 9.54422C9.2145 9.64279 9.27021 9.73707 9.30878 9.86564C9.32592 9.92564 9.33021 9.95564 9.3345 10.0542C9.3345 10.1356 9.3345 10.1828 9.32592 10.2171L9.31307 10.2685L11.7859 11.6485V4.89422ZM14.6916 10.2685L12.2145 11.6228V4.87707L14.9402 9.4885L14.8974 9.53136C14.8046 9.6232 14.7364 9.73685 14.6989 9.86189C14.6615 9.98693 14.656 10.1194 14.6831 10.2471L14.6916 10.2685ZM5.14307 11.9142V15.4285C5.14307 15.4285 5.79878 14.3228 6.5745 12.9942L7.98449 10.5728L7.94164 10.5042C7.83061 10.3444 7.78605 10.1477 7.81735 9.95564C7.82592 9.92136 7.83021 9.88707 7.82592 9.88279L5.14307 8.39136V11.9142ZM16.1745 9.88279L17.5116 9.13707L18.8574 8.38707V15.4285L17.4302 12.9985L16.0159 10.5771L16.0545 10.5299C16.1182 10.4419 16.1625 10.3414 16.1847 10.2351C16.2069 10.1287 16.2063 10.0189 16.1831 9.91279L16.1745 9.88707V9.88279ZM9.08164 10.6542C8.99592 10.7228 8.89735 10.7828 8.80735 10.8085L8.7645 10.8256V13.1656L8.82878 13.1871C8.9145 13.2171 9.00021 13.2685 9.07307 13.3285L9.12878 13.3799L10.3631 12.6899L11.5974 11.9956L9.13307 10.6156L9.08164 10.6499V10.6542ZM12.4116 11.9956C13.2259 11.5241 14.046 11.0626 14.8716 10.6114L14.9188 10.6499C14.9959 10.7185 15.1031 10.7785 15.1974 10.8085L15.2402 10.8256V13.1656L15.1974 13.1785C15.0988 13.2128 14.9916 13.2728 14.9188 13.3414L14.8759 13.3799L13.6459 12.6899L12.4116 11.9956ZM8.29307 10.8128C8.24164 10.8942 5.67449 15.3042 5.67878 15.3085C6.39967 14.912 7.11545 14.5062 7.82592 14.0914L7.81735 14.0185V13.9928C7.77449 13.6414 7.98878 13.2985 8.32735 13.1871L8.37878 13.1699V10.8214L8.34449 10.8128C8.33283 10.8091 8.32139 10.8049 8.31021 10.7999L8.29307 10.8128ZM15.6216 10.8256L15.6602 10.8128C15.6729 10.8079 15.6857 10.8036 15.6988 10.7999C15.7031 10.7999 18.3345 15.3042 18.3302 15.3085L16.1831 14.1085V14.0528C16.2166 13.8696 16.183 13.6805 16.0886 13.5199C15.9942 13.3594 15.8452 13.2382 15.6688 13.1785L15.6259 13.1656V10.8256H15.6216ZM9.31307 13.7142L9.32592 13.7699C9.34307 13.8556 9.33449 14.0314 9.30878 14.1171C9.27449 14.2414 9.21021 14.3485 9.12021 14.4428L9.06878 14.4985L11.7859 19.0842V12.3428L9.31307 13.7185V13.7142ZM14.9359 14.4985L12.2145 19.0971V12.3685L14.6916 13.7228L14.6831 13.7442C14.6316 14.0014 14.7088 14.2671 14.8845 14.4514L14.9359 14.5028V14.4985ZM6.68592 15.1928C5.95307 15.6042 5.35307 15.9428 5.35735 15.9471L11.6531 19.7056C10.6777 18.025 9.69626 16.3478 8.70878 14.6742L8.62307 14.6828C8.41735 14.6956 8.22449 14.6271 8.06592 14.4856L8.02307 14.4428L6.68592 15.1928ZM15.7416 14.6185C15.8342 14.5769 15.9184 14.5188 15.9902 14.4471C16.1531 14.5328 18.6474 15.9342 18.6559 15.9385C18.6645 15.9471 17.9831 16.3542 15.5659 17.7985L12.6859 19.5128L12.4074 19.6842L12.3516 19.7142L12.3688 19.6885L12.5745 19.3328L13.8388 17.1642C15.2788 14.6956 15.2959 14.6699 15.3131 14.6785H15.4416C15.5616 14.6785 15.6431 14.6614 15.7416 14.6185Z" fill="white"/>
</g>
<defs>
<linearGradient id="paint0_linear_31_15042" x1="4.35429" y1="2.97" x2="18.5186" y2="21.1543" gradientUnits="userSpaceOnUse">
<stop stop-color="#5566FE"/>
<stop offset="1" stop-color="#B370FF"/>
</linearGradient>
<clipPath id="clip0_31_15042">
<rect width="24" height="24" fill="white"/>
</clipPath>
</defs>
</svg>

<svg xmlns="http://www.w3.org/2000/svg" width="24" height="24" fill="none" viewBox="0 0 24 24"><g clip-path="url(#a)"><path fill="url(#b)" d="M0 0h24v24H0z"/><path fill="#fff" d="m5.357 8.036 6.288-3.75c.004 0 0 .013-.013.03l-.952 1.637-.008.008-.506.875c-1.402 2.4-1.453 2.485-1.47 2.481a1 1 0 0 0-.313.017.8.8 0 0 0-.321.172l-.043.038-1.342-.75c-1.243-.698-1.337-.75-1.32-.758m8.478-1.209-1.47-2.524c-.018-.022-.005-.022.14.068l1.317.785 1.843 1.101L18.66 8.05c0 .004-2.657 1.49-2.67 1.49a.3.3 0 0 1-.056-.042.73.73 0 0 0-.484-.184h-.128l-.035.004zm-2.05-1.933L9.07 9.484l.055.06a.8.8 0 0 1 .185.322c.017.06.021.09.026.188 0 .082 0 .129-.01.163l-.012.051 2.473 1.38zm2.907 5.374-2.478 1.355V4.877L14.94 9.49l-.043.042a.78.78 0 0 0-.214.716zm-9.549 1.646v3.515s.656-1.106 1.431-2.435l1.41-2.421-.042-.069a.75.75 0 0 1-.125-.548c.009-.035.013-.069.009-.073L5.143 8.39zm11.031-2.031 1.338-.746 1.345-.75v7.041l-1.427-2.43-1.414-2.42.039-.048a.77.77 0 0 0 .128-.617l-.009-.026zm-7.092.771a.8.8 0 0 1-.275.155l-.043.017v2.34l.065.021c.085.03.171.082.244.142l.056.05 1.234-.69 1.234-.693-2.464-1.38-.051.034zm3.33 1.342a114 114 0 0 1 2.46-1.385l.047.039a.8.8 0 0 0 .278.159l.043.017v2.34l-.043.012a.8.8 0 0 0-.278.163l-.043.039-1.23-.69zm-4.119-1.183a958 958 0 0 0-2.614 4.496q1.08-.596 2.147-1.218l-.009-.072v-.026a.76.76 0 0 1 .51-.806l.052-.017V10.82l-.035-.008-.034-.013zm7.329.013.038-.013.039-.013c.004 0 2.635 4.504 2.631 4.509l-2.147-1.2v-.056a.776.776 0 0 0-.514-.875l-.043-.012v-2.34zm-6.309 2.888.013.056a1 1 0 0 1-.017.347.76.76 0 0 1-.189.326l-.051.056 2.717 4.585v-6.741l-2.473 1.376zm5.623.784-2.722 4.6v-6.73l2.478 1.355-.009.021a.8.8 0 0 0 .201.707l.052.052zm-8.25.695c-.733.411-1.333.75-1.329.754l6.296 3.759a811 811 0 0 0-2.944-5.032l-.086.009a.75.75 0 0 1-.557-.197l-.043-.043zm9.056-.575a.8.8 0 0 0 .248-.17c.163.085 2.657 1.486 2.666 1.49.009.01-.673.416-3.09 1.86l-2.88 1.715-.279.171-.055.03.017-.025.206-.356 1.264-2.169c1.44-2.468 1.457-2.494 1.474-2.486h.129c.12 0 .201-.017.3-.06"/></g><defs><linearGradient id="b" x1="4.354" x2="18.519" y1="2.97" y2="21.154" gradientUnits="userSpaceOnUse"><stop stop-color="#5566FE"/><stop offset="1" stop-color="#B370FF"/></linearGradient><clipPath id="a"><path fill="#fff" d="M0 0h24v24H0z"/></clipPath></defs></svg>
